X:12
T:Scan Tester's Step Dance
Q:1/4=160
I:abc2nwc
M:4/4
L:1/8
K:G
D|:G3A B2B2|AB A2GB d2|e2e2dB G2|G3B AF D2|
G3A B2B2|AB A2GB d2|e2e2dB GA|B2A2G4:|
|:d2d2e4|GF GA B4|c2Ac B2G2|AG FE D4|d2d2e4|GF GA B4|c2Ac B2G2|A2F2G4:|



